app/client/src/assets/icons/blueprintjs/20px/tag.svg

<?xml version="1.0" encoding="UTF-8"?>
<svg width="20px" height="20px" viewBox="0 0 20 20" version="1.1" xmlns="http://www.w3.org/2000/svg" xmlns:xlink="http://www.w3.org/1999/xlink">
    <!-- Generator: Sketch 49.1 (51147) - http://www.bohemiancoding.com/sketch -->
    <title>Artboard 2 Copy</title>
    <desc>Created with Sketch.</desc>
    <defs></defs>
    <g id="Artboard-2-Copy" stroke="none" stroke-width="1" fill="none" fill-rule="evenodd">
        <path d="M2,4 C2,2.8954305 2.8954305,2 4,2 L8.58768786,2 C9.11812084,2 9.62682866,2.21071368 10.0019014,2.58578644 L17.4115245,9.99540956 C18.1925731,10.7764581 18.1925731,12.0427881 17.4115245,12.8238367 L12.8238367,17.4115245 C12.0427881,18.1925731 10.7764581,18.1925731 9.99540956,17.4115245 L2.58578644,10.0019014 C2.21071368,9.62682866 2,9.11812084 2,8.58768786 L2,4 Z M5.48863925,3.99350814 C4.66290114,3.99350814 3.99350814,4.66290114 3.99350814,5.48863925 C3.99350814,6.31437736 4.66290114,6.98377035 5.48863925,6.98377035 C6.31437736,6.98377035 6.98377035,6.31437736 6.98377035,5.48863925 C6.98377035,4.66290114 6.31437736,3.99350814 5.48863925,3.99350814 Z" id="Combined-Shape" fill="#000000"></path>
    </g>
</svg>

<svg xmlns="http://www.w3.org/2000/svg" width="20" height="20"><path fill-rule="evenodd" d="M2 4a2 2 0 0 1 2-2h4.588a2 2 0 0 1 1.414.586l7.41 7.41a2 2 0 0 1 0 2.828l-4.588 4.588a2 2 0 0 1-2.829 0l-7.41-7.41A2 2 0 0 1 2 8.588V4Zm3.489-.006a1.495 1.495 0 1 0 0 2.99 1.495 1.495 0 0 0 0-2.99Z"/></svg>
